labeller/dist/img/labeller/principle/ill-1.svg

<svg width="306" height="200" viewBox="0 0 306 200" fill="none" xmlns="http://www.w3.org/2000/svg">
<path fill-rule="evenodd" clip-rule="evenodd" d="M43.714 5.07251H50.1977C50.4198 5.07251 50.6012 5.25739 50.6012 5.48263V86.5698H43.3105V5.48263C43.3105 5.25715 43.4919 5.07251 43.714 5.07251H43.714Z" stroke="#9AA3AD" stroke-linecap="round" stroke-linejoin="round"/>
<path fill-rule="evenodd" clip-rule="evenodd" d="M53.3947 5.07251H59.8784C60.1005 5.07251 60.2821 5.25739 60.2821 5.48263V86.5698H52.9912V5.48263C52.9912 5.25715 53.1726 5.07251 53.3947 5.07251H53.3947Z" stroke="#9AA3AD" stroke-linecap="round" stroke-linejoin="round"/>
<path fill-rule="evenodd" clip-rule="evenodd" d="M72.7619 5.07251H79.2458C79.4676 5.07251 79.6493 5.25739 79.6493 5.48263V86.5698H72.3584V5.48263C72.3584 5.25715 72.54 5.07251 72.7618 5.07251H72.7619Z" stroke="#9AA3AD" stroke-linecap="round" stroke-linejoin="round"/>
<path fill-rule="evenodd" clip-rule="evenodd" d="M92.1271 5.07251H98.6111C98.8329 5.07251 99.0145 5.25739 99.0145 5.48263V86.5698H91.7236V5.48263C91.7236 5.25715 91.9053 5.07251 92.1271 5.07251H92.1271Z" stroke="#9AA3AD" stroke-linecap="round" stroke-linejoin="round"/>
<path fill-rule="evenodd" clip-rule="evenodd" d="M111.494 5.07251H117.978C118.2 5.07251 118.382 5.25739 118.382 5.48263V86.5698H111.091V5.48263C111.091 5.25715 111.272 5.07251 111.494 5.07251H111.494Z" stroke="#9AA3AD" stroke-linecap="round" stroke-linejoin="round"/>
<path fill-rule="evenodd" clip-rule="evenodd" d="M130.861 5.07251H137.345C137.567 5.07251 137.749 5.25739 137.749 5.48263V86.5698H130.458V5.48263C130.458 5.25715 130.64 5.07251 130.861 5.07251H130.861Z" stroke="#9AA3AD" stroke-linecap="round" stroke-linejoin="round"/>
<path fill-rule="evenodd" clip-rule="evenodd" d="M150.229 5.07251H156.712C156.934 5.07251 157.116 5.25739 157.116 5.48263V86.5698H149.825V5.48263C149.825 5.25715 150.007 5.07251 150.229 5.07251H150.229Z" stroke="#9AA3AD" stroke-linecap="round" stroke-linejoin="round"/>
<path fill-rule="evenodd" clip-rule="evenodd" d="M63.0802 5.07251H69.5639C69.7859 5.07251 69.9673 5.25739 69.9673 5.48263V86.5698H62.6768V5.48263C62.6768 5.25715 62.8582 5.07251 63.0802 5.07251H63.0802Z" stroke="#9AA3AD" stroke-linecap="round" stroke-linejoin="round"/>
<path fill-rule="evenodd" clip-rule="evenodd" d="M82.4445 5.07251H88.9281C89.1502 5.07251 89.3316 5.25739 89.3316 5.48263V86.5698H82.041V5.48263C82.041 5.25715 82.2224 5.07251 82.4445 5.07251H82.4445Z" stroke="#9AA3AD" stroke-linecap="round" stroke-linejoin="round"/>
<path fill-rule="evenodd" clip-rule="evenodd" d="M101.812 5.07251H108.295C108.517 5.07251 108.699 5.25739 108.699 5.48263V86.5699C108.699 86.7953 108.517 86.98 108.295 86.98H101.812C101.59 86.98 101.408 86.7956 101.408 86.5699V5.48263C101.408 5.25715 101.59 5.07251 101.812 5.07251V5.07251Z" stroke="#9AA3AD" stroke-linecap="round" stroke-linejoin="round"/>
<path fill-rule="evenodd" clip-rule="evenodd" d="M121.179 5.07251H127.663C127.884 5.07251 128.066 5.25739 128.066 5.48263V86.5698H120.775V5.48263C120.775 5.25715 120.957 5.07251 121.179 5.07251V5.07251Z" stroke="#9AA3AD" stroke-linecap="round" stroke-linejoin="round"/>
<path fill-rule="evenodd" clip-rule="evenodd" d="M140.544 5.07251H147.028C147.25 5.07251 147.431 5.25739 147.431 5.48263V86.5698H140.141V5.48263C140.141 5.25715 140.322 5.07251 140.544 5.07251V5.07251Z" stroke="#9AA3AD" stroke-linecap="round" stroke-linejoin="round"/>
<path fill-rule="evenodd" clip-rule="evenodd" d="M183.994 156.771H209.579C209.956 156.771 210.265 157.086 210.265 157.469V162.635C210.265 163.951 209.206 165.028 207.911 165.028H183.994V156.771H183.994Z" stroke="#9AA3AD" stroke-linecap="round" stroke-linejoin="round"/>
<path fill-rule="evenodd" clip-rule="evenodd" d="M37.6123 86.5696H183.995C184.472 86.5696 184.718 86.6462 184.881 86.9321C191.188 98.4253 197.495 109.919 203.802 121.412C204.43 122.518 204.243 123.327 203.888 123.951L200.035 130.506C199.008 132.313 197.762 132.162 196.376 132.162H190.333C187.821 132.162 183.995 132.348 183.995 141.137V165.029H37.6123V86.5697L37.6123 86.5696Z" stroke="#9AA3AD" stroke-linecap="round" stroke-linejoin="round"/>
<path fill-rule="evenodd" clip-rule="evenodd" d="M43.9229 122.253H168.834C170.266 122.253 171.437 123.444 171.437 124.899V160.132C171.437 161.588 170.266 162.779 168.834 162.779H43.9229C42.4909 162.779 41.3193 161.588 41.3193 160.132V124.899C41.3193 123.444 42.4909 122.253 43.9229 122.253V122.253Z" stroke="#9AA3AD" stroke-linecap="round" stroke-linejoin="round"/>
<path fill-rule="evenodd" clip-rule="evenodd" d="M48.3576 131.282H95.4955C96.0362 131.282 96.4781 131.731 96.4781 132.28V145.576C96.4781 146.126 96.0362 146.575 95.4955 146.575H48.3576C47.8172 146.575 47.375 146.126 47.375 145.576V132.28C47.375 131.731 47.8172 131.282 48.3576 131.282V131.282Z" stroke="#9AA3AD" stroke-linecap="round" stroke-linejoin="round"/>
<path d="M164.967 122.253V86.5696" stroke="#9AA3AD" stroke-linecap="round" stroke-linejoin="round"/>
<path fill-rule="evenodd" clip-rule="evenodd" d="M299.787 131.026L300.053 163.153C300.062 164.178 299.214 165.018 298.19 165.018H241.107C240.082 165.018 239.251 164.179 239.243 163.153L238.957 128.624L239.243 130.302C239.742 131.827 240.363 132.309 241.798 132.309L269.717 132.374H297.384C298.286 132.374 299.236 132.137 299.787 131.026L299.787 131.026Z" stroke="#9AA3AD" stroke-linecap="round" stroke-linejoin="round"/>
<path fill-rule="evenodd" clip-rule="evenodd" d="M301.868 120.46L301.835 120.46C301.455 121.874 299.89 122.927 298.15 122.927H241.194C239.745 122.927 238.421 122.196 237.798 121.135L237.682 121.136L239.241 130.303C239.741 131.828 240.362 132.309 241.796 132.309L269.716 132.374H297.383C298.455 132.374 299.594 132.04 300.052 130.303L301.868 120.46H301.868Z" stroke="#9AA3AD" stroke-linecap="round" stroke-linejoin="round"/>
<path fill-rule="evenodd" clip-rule="evenodd" d="M266.225 152.525H283.985C284.368 152.525 284.681 152.838 284.681 153.22V162.752C284.681 164.064 283.608 165.138 282.297 165.138H266.225H250.154C248.843 165.138 247.77 164.064 247.77 162.752V153.22C247.77 152.838 248.082 152.525 248.465 152.525H266.225H266.225Z" stroke="#9AA3AD" stroke-linecap="round" stroke-linejoin="round"/>
<path fill-rule="evenodd" clip-rule="evenodd" d="M266.225 156.907H283.985C284.368 156.907 284.681 157.22 284.681 157.603V162.752C284.681 164.064 283.608 165.138 282.297 165.138H266.225H250.154C248.842 165.138 247.77 164.064 247.77 162.752V157.603C247.77 157.22 248.082 156.907 248.465 156.907H266.225H266.225Z" stroke="#9AA3AD" stroke-linecap="round" stroke-linejoin="round"/>
<path fill-rule="evenodd" clip-rule="evenodd" d="M243.153 86.9258H296.032C298.103 86.9258 299.667 88.4192 299.798 90.2361L301.916 119.617C302.047 121.434 300.221 122.927 298.15 122.927H241.194C239.123 122.927 237.307 121.434 237.429 119.617L239.387 90.2361C239.509 88.4185 241.082 86.9258 243.153 86.9258H243.153Z" stroke="#9AA3AD" stroke-linecap="round" stroke-linejoin="round"/>
<path fill-rule="evenodd" clip-rule="evenodd" d="M244.396 89.9556H294.726C296.622 89.9556 297.06 91.0228 297.144 92.3237L298.403 111.73C298.487 113.031 297.961 114.098 296.065 114.098H243.022C241.126 114.098 240.465 113.031 240.55 111.73L241.826 92.3237C241.912 91.0226 242.499 89.9556 244.396 89.9556H244.396Z" stroke="#9AA3AD" stroke-linecap="round" stroke-linejoin="round"/>
<path d="M269.736 121.08C270.841 121.08 271.738 120.183 271.738 119.076C271.738 117.97 270.841 117.073 269.736 117.073C268.63 117.073 267.733 117.97 267.733 119.076C267.733 120.183 268.63 121.08 269.736 121.08Z" stroke="#9AA3AD" stroke-linecap="round" stroke-linejoin="round"/>
<path fill-rule="evenodd" clip-rule="evenodd" d="M247.455 5.68419C257.203 5.68419 272.685 5.68419 282.433 5.68419C283.687 5.68419 284.682 6.49895 284.682 8.59438V86.925H247.455C247.455 64.1132 247.455 41.3013 247.455 18.4895C247.455 17.2061 249.402 17.5817 249.55 17.3254L247.455 11.4272V5.68408L247.455 5.68419Z" stroke="#9AA3AD" stroke-linecap="round" stroke-linejoin="round"/>
<path d="M34.6494 3.23804L20.451 3.23804" stroke="#748890" stroke-width="0.5"/>
<path d="M34.6494 165.922L20.451 165.922" stroke="#748890" stroke-width="0.5"/>
<path d="M37.6924 169.459V183.539" stroke="#748890" stroke-width="0.5"/>
<path d="M209.103 169.459V183.539" stroke="#748890" stroke-width="0.5"/>
<path d="M35.2871 179.637H212.732" stroke="#748890"/>
<path d="M211.202 177.361L207.688 181.914" stroke="#748890"/>
<path d="M39.7089 177.361L36.1943 181.914" stroke="#748890"/>
<path d="M24.4805 0.952881L24.4805 169.366" stroke="#748890"/>
<path d="M26.7773 167.915L22.1853 164.579" stroke="#748890"/>
<path d="M26.7773 5.14917L22.1853 1.81348" stroke="#748890"/>
<path d="M120.638 191.816C121.511 191.816 122.27 191.966 122.914 192.265C123.559 192.558 124.057 192.985 124.408 193.548C124.766 194.11 124.944 194.793 124.944 195.596C124.944 196.475 124.754 197.233 124.373 197.872C123.992 198.505 123.444 198.994 122.729 199.34C122.015 199.68 121.159 199.85 120.163 199.85C119.495 199.85 118.874 199.791 118.3 199.674C117.726 199.557 117.242 199.381 116.85 199.146V197.758C117.277 198.016 117.796 198.221 118.405 198.373C119.015 198.525 119.606 198.602 120.181 198.602C120.831 198.602 121.399 198.499 121.886 198.294C122.378 198.083 122.759 197.767 123.028 197.345C123.304 196.917 123.441 196.381 123.441 195.736C123.441 194.881 123.178 194.222 122.65 193.759C122.129 193.29 121.303 193.056 120.172 193.056C119.809 193.056 119.41 193.085 118.977 193.144C118.543 193.202 118.186 193.267 117.904 193.337L117.166 192.854L117.658 186.824H124.048V188.16H118.906L118.581 192.036C118.804 191.989 119.091 191.942 119.442 191.896C119.794 191.843 120.192 191.816 120.638 191.816ZM131.123 186.64C131.867 186.64 132.526 186.757 133.101 186.991C133.675 187.226 134.123 187.571 134.445 188.028C134.773 188.479 134.938 189.036 134.938 189.698C134.938 190.22 134.823 190.677 134.595 191.069C134.372 191.456 134.07 191.796 133.689 192.089C133.309 192.376 132.887 192.634 132.424 192.862C132.975 193.114 133.47 193.398 133.909 193.715C134.354 194.031 134.706 194.403 134.964 194.831C135.222 195.259 135.351 195.766 135.351 196.352C135.351 197.072 135.175 197.696 134.823 198.224C134.478 198.745 133.991 199.146 133.364 199.428C132.737 199.709 132.002 199.85 131.158 199.85C130.25 199.85 129.477 199.715 128.838 199.445C128.205 199.17 127.722 198.777 127.388 198.268C127.06 197.752 126.896 197.134 126.896 196.413C126.896 195.821 127.021 195.309 127.273 194.875C127.525 194.436 127.859 194.058 128.275 193.741C128.691 193.425 129.146 193.158 129.638 192.941C129.21 192.707 128.817 192.44 128.46 192.142C128.108 191.843 127.827 191.494 127.616 191.096C127.411 190.691 127.309 190.223 127.309 189.689C127.309 189.039 127.473 188.488 127.801 188.037C128.135 187.58 128.589 187.234 129.163 187C129.743 186.76 130.396 186.64 131.123 186.64ZM128.328 196.422C128.328 197.078 128.56 197.62 129.022 198.048C129.485 198.47 130.186 198.681 131.123 198.681C132.014 198.681 132.702 198.47 133.188 198.048C133.675 197.62 133.918 197.061 133.918 196.369C133.918 195.941 133.807 195.566 133.584 195.244C133.361 194.916 133.045 194.623 132.635 194.365C132.225 194.107 131.741 193.873 131.185 193.662L130.868 193.548C130.329 193.771 129.869 194.02 129.488 194.295C129.113 194.564 128.826 194.872 128.627 195.218C128.428 195.563 128.328 195.965 128.328 196.422ZM131.105 187.835C130.414 187.835 129.849 188.002 129.409 188.336C128.97 188.664 128.75 189.139 128.75 189.76C128.75 190.205 128.855 190.583 129.066 190.894C129.283 191.198 129.576 191.462 129.945 191.685C130.314 191.901 130.728 192.104 131.185 192.291C131.63 192.104 132.025 191.898 132.371 191.676C132.717 191.447 132.989 191.178 133.188 190.867C133.388 190.557 133.487 190.185 133.487 189.751C133.487 189.13 133.268 188.655 132.828 188.327C132.395 187.999 131.82 187.835 131.105 187.835Z" fill="#748890"/>
<path d="M5.87402 86.1096C6.74707 86.1096 7.50586 86.259 8.15039 86.5579C8.79492 86.8508 9.29297 87.2786 9.64453 87.8411C10.002 88.4036 10.1807 89.0862 10.1807 89.8889C10.1807 90.7678 9.99023 91.5266 9.60938 92.1653C9.22852 92.7981 8.68066 93.2874 7.96582 93.6331C7.25098 93.9729 6.39551 94.1428 5.39941 94.1428C4.73145 94.1428 4.11035 94.0842 3.53613 93.967C2.96191 93.8499 2.47852 93.6741 2.08594 93.4397V92.051C2.51367 92.3088 3.03223 92.5139 3.6416 92.6663C4.25098 92.8186 4.84277 92.8948 5.41699 92.8948C6.06738 92.8948 6.63574 92.7922 7.12207 92.5872C7.61426 92.3762 7.99512 92.0598 8.26465 91.6379C8.54004 91.2102 8.67773 90.6741 8.67773 90.0295C8.67773 89.1741 8.41406 88.5149 7.88672 88.052C7.36523 87.5833 6.53906 87.3489 5.4082 87.3489C5.04492 87.3489 4.64648 87.3782 4.21289 87.4368C3.7793 87.4954 3.42188 87.5598 3.14062 87.6301L2.40234 87.1467L2.89453 81.1174H9.28418V82.4534H4.14258L3.81738 86.3293C4.04004 86.2825 4.32715 86.2356 4.67871 86.1887C5.03027 86.136 5.42871 86.1096 5.87402 86.1096ZM12.2461 88.4739C12.2461 87.7004 12.2988 86.9446 12.4043 86.2063C12.5156 85.468 12.7002 84.7825 12.958 84.1497C13.2158 83.511 13.5674 82.9514 14.0127 82.4709C14.458 81.9905 15.0117 81.6155 15.6738 81.3459C16.3418 81.0706 17.1416 80.9329 18.0732 80.9329C18.3369 80.9329 18.6211 80.9475 18.9258 80.9768C19.2305 81.0002 19.4824 81.0413 19.6816 81.0999V82.3567C19.4648 82.2805 19.2158 82.2249 18.9346 82.1897C18.6592 82.1545 18.3809 82.137 18.0996 82.137C17.0098 82.137 16.1514 82.3743 15.5244 82.8489C14.9033 83.3235 14.4551 83.968 14.1797 84.7825C13.9043 85.5911 13.7461 86.5022 13.7051 87.5159H13.8018C13.9834 87.2229 14.2148 86.9592 14.4961 86.7249C14.7773 86.4846 15.1172 86.2942 15.5156 86.1536C15.9199 86.0129 16.3887 85.9426 16.9219 85.9426C17.6719 85.9426 18.3252 86.095 18.8818 86.3997C19.4443 86.7043 19.8779 87.1467 20.1826 87.7268C20.4932 88.3069 20.6484 89.01 20.6484 89.8362C20.6484 90.7209 20.4844 91.4856 20.1562 92.1301C19.8281 92.7747 19.3594 93.2727 18.75 93.6243C18.1465 93.97 17.4258 94.1428 16.5879 94.1428C15.9609 94.1428 15.3838 94.0227 14.8564 93.7825C14.3291 93.5422 13.8691 93.1848 13.4766 92.7102C13.0898 92.2356 12.7881 91.6467 12.5713 90.9436C12.3545 90.2346 12.2461 89.4114 12.2461 88.4739ZM16.5703 92.9124C17.3672 92.9124 18.0059 92.6575 18.4863 92.1477C18.9668 91.6379 19.207 90.8674 19.207 89.8362C19.207 88.9924 18.9932 88.3245 18.5654 87.8323C18.1377 87.3401 17.4932 87.094 16.6318 87.094C16.0459 87.094 15.5361 87.217 15.1025 87.4631C14.6689 87.7034 14.332 88.0081 14.0918 88.3772C13.8516 88.7463 13.7314 89.1213 13.7314 89.5022C13.7314 89.8889 13.7871 90.2815 13.8984 90.6799C14.0156 91.0784 14.1914 91.4475 14.4258 91.7874C14.6602 92.1272 14.9561 92.3997 15.3135 92.6047C15.6709 92.8098 16.0898 92.9124 16.5703 92.9124Z" fill="#748890"/>
<path d="M236.688 168.847V182.852" stroke="#748890" stroke-width="0.5"/>
<path d="M302.882 168.848V182.853" stroke="#748890" stroke-width="0.5"/>
<path d="M233.919 178.653H305.587" stroke="#748890"/>
<path d="M304.714 176.907L301.056 180.398" stroke="#748890"/>
<path d="M238.521 176.907L234.864 180.398" stroke="#748890"/>
<path d="M276.042 198.989H267.622V197.767L271.059 194.278C271.697 193.633 272.233 193.059 272.667 192.555C273.106 192.051 273.44 191.556 273.669 191.07C273.897 190.578 274.012 190.039 274.012 189.453C274.012 188.726 273.795 188.172 273.361 187.792C272.934 187.405 272.368 187.211 271.665 187.211C271.05 187.211 270.505 187.317 270.03 187.528C269.556 187.739 269.069 188.038 268.571 188.424L267.789 187.44C268.129 187.153 268.498 186.898 268.896 186.675C269.301 186.453 269.731 186.277 270.188 186.148C270.651 186.019 271.144 185.955 271.665 185.955C272.456 185.955 273.139 186.092 273.713 186.368C274.287 186.643 274.729 187.036 275.04 187.545C275.356 188.055 275.515 188.662 275.515 189.365C275.515 190.044 275.38 190.677 275.11 191.263C274.841 191.843 274.463 192.42 273.977 192.995C273.49 193.563 272.922 194.167 272.271 194.805L269.477 197.591V197.653H276.042V198.989ZM283.354 198.989H281.931V189.883C281.931 189.538 281.931 189.242 281.931 188.996C281.937 188.744 281.942 188.515 281.948 188.31C281.96 188.099 281.975 187.885 281.992 187.668C281.811 187.856 281.641 188.017 281.482 188.152C281.324 188.281 281.128 188.442 280.894 188.635L279.426 189.813L278.661 188.82L282.142 186.139H283.354V198.989Z" fill="#748890"/>
</svg>

<svg fill="none" viewBox="0 0 306 200">
  <path stroke="#9AA3AD" stroke-linecap="round" stroke-linejoin="round" d="M43.71 5.07h6.49c.22 0 .4.19.4.41v81.09h-7.29V5.48a.4.4 0 0 1 .4-.4h0ZM53.4 5.07h6.48c.22 0 .4.19.4.41v81.09H53V5.48a.4.4 0 0 1 .4-.4h0ZM72.76 5.07h6.49c.22 0 .4.19.4.41v81.09h-7.3V5.48a.4.4 0 0 1 .41-.4h0ZM92.13 5.07h6.48c.22 0 .4.19.4.41v81.09h-7.29V5.48a.4.4 0 0 1 .4-.4h0ZM111.5 5.07h6.48c.22 0 .4.19.4.41v81.09h-7.29V5.48a.4.4 0 0 1 .4-.4h0ZM130.86 5.07h6.48c.23 0 .4.19.4.41v81.09h-7.28V5.48a.4.4 0 0 1 .4-.4h0ZM150.23 5.07h6.48c.22 0 .4.19.4.41v81.09h-7.29V5.48a.4.4 0 0 1 .4-.4h0ZM63.08 5.07h6.48c.23 0 .4.19.4.41v81.09h-7.28V5.48a.4.4 0 0 1 .4-.4h0ZM82.44 5.07h6.49c.22 0 .4.19.4.41v81.09h-7.29V5.48a.4.4 0 0 1 .4-.4h0ZM101.81 5.07h6.48c.23 0 .4.19.4.41v81.09a.4.4 0 0 1-.4.41h-6.48a.4.4 0 0 1-.4-.41V5.48a.4.4 0 0 1 .4-.4v0ZM121.18 5.07h6.48c.22 0 .4.19.4.41v81.09h-7.28V5.48a.4.4 0 0 1 .4-.4v0ZM140.54 5.07h6.49c.22 0 .4.19.4.41v81.09h-7.29V5.48a.4.4 0 0 1 .4-.4v0ZM184 156.77h25.58a.7.7 0 0 1 .68.7v5.16c0 1.32-1.05 2.4-2.35 2.4H184v-8.26h0Z" clip-rule="evenodd"/>
  <path stroke="#9AA3AD" stroke-linecap="round" stroke-linejoin="round" d="M37.61 86.57H184c.48 0 .73.08.9.36l18.91 34.48c.63 1.1.44 1.92.09 2.54l-3.85 6.56c-1.03 1.8-2.28 1.65-3.66 1.65h-6.05c-2.5 0-6.34.19-6.34 8.98v23.89H37.62V86.57h0Z" clip-rule="evenodd"/>
  <path stroke="#9AA3AD" stroke-linecap="round" stroke-linejoin="round" d="M43.92 122.25h124.91c1.44 0 2.6 1.2 2.6 2.65v35.23a2.63 2.63 0 0 1-2.6 2.65H43.93c-1.44 0-2.61-1.2-2.61-2.65V124.9a2.63 2.63 0 0 1 2.6-2.65v0Z" clip-rule="evenodd"/>
  <path stroke="#9AA3AD" stroke-linecap="round" stroke-linejoin="round" d="M48.36 131.28H95.5a1 1 0 0 1 .98 1v13.3a1 1 0 0 1-.98 1H48.36a1 1 0 0 1-.98-1v-13.3a1 1 0 0 1 .98-1v0Z" clip-rule="evenodd"/>
  <path stroke="#9AA3AD" stroke-linecap="round" stroke-linejoin="round" d="M164.97 122.25V86.57"/>
  <path stroke="#9AA3AD" stroke-linecap="round" stroke-linejoin="round" d="m299.79 131.03.26 32.12c.01 1.03-.84 1.87-1.86 1.87h-57.08a1.88 1.88 0 0 1-1.87-1.87l-.28-34.53.28 1.68c.5 1.53 1.12 2 2.56 2l27.92.07h27.66c.9 0 1.86-.23 2.4-1.34h0Z" clip-rule="evenodd"/>
  <path stroke="#9AA3AD" stroke-linecap="round" stroke-linejoin="round" d="M301.87 120.46h-.04c-.38 1.41-1.94 2.47-3.68 2.47h-56.96a3.95 3.95 0 0 1-3.4-1.8h-.1l1.55 9.17c.5 1.53 1.12 2 2.56 2l27.92.07h27.66c1.07 0 2.21-.33 2.67-2.07l1.82-9.84h0ZM266.23 152.53h17.75c.39 0 .7.3.7.69v9.53a2.4 2.4 0 0 1-2.38 2.39h-32.15a2.4 2.4 0 0 1-2.38-2.39v-9.53c0-.38.31-.7.7-.7h17.76Z" clip-rule="evenodd"/>
  <path stroke="#9AA3AD" stroke-linecap="round" stroke-linejoin="round" d="M266.23 156.9h17.75c.39 0 .7.32.7.7v5.15a2.4 2.4 0 0 1-2.38 2.39h-32.15a2.4 2.4 0 0 1-2.38-2.39v-5.15c0-.38.31-.7.7-.7h17.76ZM243.15 86.93h52.88c2.07 0 3.64 1.49 3.77 3.3l2.12 29.39c.13 1.81-1.7 3.3-3.77 3.3h-56.96c-2.07 0-3.88-1.49-3.76-3.3l1.96-29.38a3.65 3.65 0 0 1 3.76-3.31h0Z" clip-rule="evenodd"/>
  <path stroke="#9AA3AD" stroke-linecap="round" stroke-linejoin="round" d="M244.4 89.96h50.33c1.9 0 2.33 1.06 2.41 2.36l1.26 19.41c.09 1.3-.44 2.37-2.33 2.37h-53.05c-1.9 0-2.56-1.07-2.47-2.37l1.28-19.4c.08-1.3.67-2.37 2.57-2.37h0Z" clip-rule="evenodd"/>
  <path stroke="#9AA3AD" stroke-linecap="round" stroke-linejoin="round" d="M269.74 121.08a2 2 0 1 0 0-4 2 2 0 0 0 0 4Z"/>
  <path stroke="#9AA3AD" stroke-linecap="round" stroke-linejoin="round" d="M247.46 5.68h34.97c1.26 0 2.25.82 2.25 2.91v78.33h-37.22V18.5c0-1.28 1.94-.9 2.09-1.16l-2.1-5.9V5.68h0Z" clip-rule="evenodd"/>
  <path stroke="#748890" stroke-width=".5" d="M34.65 3.24h-14.2M34.65 165.92h-14.2M37.7 169.46v14.08M209.1 169.46v14.08"/>
  <path stroke="#748890" d="M35.29 179.64h177.44M211.2 177.36l-3.51 4.55M39.7 177.36l-3.5 4.55M24.48.95v168.42M26.78 167.91l-4.6-3.33M26.78 5.15l-4.6-3.34"/>
  <path fill="#748890" d="M120.64 191.82c.87 0 1.63.15 2.27.44.65.3 1.15.73 1.5 1.29.36.56.53 1.24.53 2.05 0 .88-.19 1.63-.57 2.27a3.79 3.79 0 0 1-1.64 1.47c-.72.34-1.57.51-2.57.51-.66 0-1.29-.06-1.86-.18a4.6 4.6 0 0 1-1.45-.52v-1.4a7.33 7.33 0 0 0 3.33.84c.65.01 1.22-.1 1.7-.3.5-.2.88-.52 1.15-.94.27-.43.41-.97.41-1.61 0-.86-.26-1.52-.79-1.98-.52-.47-1.35-.7-2.48-.7a10.13 10.13 0 0 0-2.27.28l-.73-.49.49-6.03h6.39v1.34h-5.14l-.33 3.88a11.65 11.65 0 0 1 2.06-.22Zm10.48-5.18c.75 0 1.4.12 1.98.35a2.76 2.76 0 0 1 1.84 2.7c0 .53-.12.99-.34 1.38-.23.39-.53.73-.91 1.02-.38.29-.8.54-1.27.77.56.25 1.05.54 1.49.85.44.32.8.7 1.05 1.12.26.43.4.94.4 1.52a3.3 3.3 0 0 1-.54 1.87c-.34.53-.83.93-1.46 1.2-.62.29-1.36.43-2.2.43-.91 0-1.68-.13-2.32-.4a3.2 3.2 0 0 1-1.45-1.18 3.38 3.38 0 0 1-.5-1.86 3 3 0 0 1 .38-1.53c.26-.44.59-.82 1-1.14.42-.31.88-.58 1.37-.8a7.3 7.3 0 0 1-1.18-.8c-.35-.3-.63-.65-.84-1.04-.2-.4-.31-.88-.31-1.41 0-.65.16-1.2.5-1.65.32-.46.78-.8 1.35-1.04a5.08 5.08 0 0 1 1.96-.36Zm-2.8 9.78c0 .66.24 1.2.7 1.63.47.42 1.17.63 2.1.63.9 0 1.58-.21 2.07-.63.49-.43.73-.99.73-1.68 0-.43-.11-.8-.34-1.13a3.15 3.15 0 0 0-.95-.88c-.4-.25-.89-.49-1.44-.7l-.32-.11c-.54.22-1 .47-1.38.74-.38.27-.66.58-.86.93-.2.34-.3.75-.3 1.2Zm2.78-8.58c-.69 0-1.25.16-1.7.5-.43.32-.65.8-.65 1.42 0 .45.1.82.32 1.13.21.3.5.57.88.8.36.21.78.41 1.24.6.44-.19.84-.4 1.18-.61.35-.23.62-.5.82-.81.2-.31.3-.69.3-1.12 0-.62-.22-1.1-.66-1.42-.44-.33-1.01-.5-1.73-.5ZM5.87 86.11c.88 0 1.64.15 2.28.45.64.3 1.14.72 1.5 1.28.35.56.53 1.25.53 2.05 0 .88-.19 1.64-.57 2.28a3.79 3.79 0 0 1-1.64 1.46c-.72.34-1.57.51-2.57.51-.67 0-1.29-.06-1.86-.17a4.62 4.62 0 0 1-1.45-.53v-1.39c.42.26.94.46 1.55.62.61.15 1.2.22 1.78.22.65 0 1.22-.1 1.7-.3.5-.21.88-.53 1.14-.95.28-.43.42-.97.42-1.61a2.5 2.5 0 0 0-.8-1.98c-.51-.47-1.34-.7-2.47-.7a8.98 8.98 0 0 0-2.27.28l-.74-.48.5-6.03h6.38v1.33H4.14l-.32 3.88a12.14 12.14 0 0 1 2.05-.22Zm6.38 2.36c0-.77.05-1.53.15-2.26.12-.74.3-1.43.56-2.06.26-.64.6-1.2 1.05-1.68.45-.48 1-.85 1.66-1.12a6.29 6.29 0 0 1 2.4-.42 8.94 8.94 0 0 1 1.61.17v1.26a3.61 3.61 0 0 0-.75-.17 6.58 6.58 0 0 0-.83-.05c-1.09 0-1.95.23-2.58.7a3.96 3.96 0 0 0-1.34 1.94c-.28.81-.43 1.72-.47 2.74h.1a3.27 3.27 0 0 1 1.7-1.37c.41-.14.88-.2 1.41-.2.75 0 1.4.14 1.96.45.56.3 1 .75 1.3 1.33.31.58.47 1.28.47 2.1a5 5 0 0 1-.5 2.3c-.32.64-.8 1.14-1.4 1.5-.6.34-1.32.51-2.16.51a3.85 3.85 0 0 1-3.11-1.43 5.18 5.18 0 0 1-.9-1.77 8.47 8.47 0 0 1-.33-2.47Zm4.32 4.44c.8 0 1.44-.25 1.92-.76s.72-1.28.72-2.31c0-.85-.22-1.52-.64-2-.43-.5-1.08-.75-1.94-.75-.58 0-1.1.13-1.53.37-.43.24-.77.55-1 .92-.25.37-.37.74-.37 1.12a3.85 3.85 0 0 0 .7 2.29 2.48 2.48 0 0 0 2.14 1.13Z"/>
  <path stroke="#748890" stroke-width=".5" d="M236.69 168.85v14M302.88 168.85v14"/>
  <path stroke="#748890" d="M233.92 178.65h71.67M304.71 176.9l-3.65 3.5M238.52 176.9l-3.66 3.5"/>
  <path fill="#748890" d="M276.04 198.99h-8.42v-1.22l3.44-3.5c.64-.64 1.17-1.21 1.6-1.72.45-.5.78-1 1-1.48.24-.5.35-1.03.35-1.62 0-.72-.21-1.28-.65-1.66-.43-.38-1-.58-1.7-.58a4 4 0 0 0-1.63.32c-.47.2-.96.5-1.46.9l-.78-.99a6.16 6.16 0 0 1 2.4-1.3 5.48 5.48 0 0 1 3.52.23c.58.27 1.02.67 1.33 1.17.32.52.47 1.12.47 1.83 0 .67-.13 1.3-.4 1.9a7.77 7.77 0 0 1-1.13 1.72c-.49.57-1.06 1.18-1.7 1.81l-2.8 2.8v.05h6.56V199Zm7.31 0h-1.42v-10l.02-.68.04-.64a7.05 7.05 0 0 1-1.1.97l-1.46 1.17-.77-.99 3.48-2.68h1.21v12.85Z"/>
</svg>
